!!!COM: Music21
!!!OTL: hornpipe_Flowers-At-Springtime
!!!OMV: hornpipe_Flowers-At-Springtime
**kern
*clefG2
*k[f#c#]
*D:
*M4/4
=1
8aL
8f#J
=
4d
8dL
8f#J
8aL
8f#J
4d
=
8gL
8dJ
8gL
8bJ
8aL
8f#J
4d
=
8aL
8ddJ
8ddL
8bJ
8aL
8f#J
8dL
8eJ
=
8f#L
8eJ
8eL
8dJ
8eL
8gJ
8f#L
8eJ
=
4d
8dL
8f#J
8aL
8f#J
4d
!!linebreak:original
=
8gL
8dJ
8gL
8bJ
8aL
8f#J
4d
=
8aL
8ddJ
8ddL
8bJ
8aL
8f#J
8dL
8f#J
=
8eL
8dJ
8f#L
8eJ
4d
4ryy
=||
*M4/4
8aL
8f#J
=
4d
8dL
8f#J
8aL
8f#J
4d
=
8gL
8dJ
8gL
8bJ
8aL
8f#J
4d
!!linebreak:original
=
8aL
8ddJ
8ddL
8bJ
8aL
8f#J
8dL
8eJ
=
8f#L
8eJ
8eL
8dJ
8eL
8gJ
8f#L
8eJ
=
4d
8dL
8f#J
8aL
8f#J
4d
=
8gL
8dJ
8gL
8bJ
8aL
8f#J
4d
=
8aL
8ddJ
8ddL
8bJ
8aL
8f#J
8dL
8f#J
!!linebreak:original
=
8eL
8dJ
8f#L
8eJ
4d
4ryy
=||
8ddL
8eeJ
2.ryy
=
8ff#L
8ddJ
8bL
8aJ
4b
8ddL
8eeJ
=
8ff#L
8ddJ
8bL
8aJ
4.b
8a
=
4.dd
8ee
4ff#
8eeL
8ddJ
=
8ff#L
8eeJ
8eeL
8ddJ
8eeL
8ggJ
8ff#L
8eeJ
!!linebreak:original
=
4d
8dL
8f#J
8aL
8f#J
4d
=
8gL
8dJ
8gL
8bJ
8aL
8f#J
4d
=
8aL
8ddJ
8ddL
8bJ
8aL
8f#J
8dL
8f#J
=
8eL
8dJ
8f#L
8eJ
4d
4ryy
=||
8ddL
8eeJ
2.ryy
=
8ff#L
8ddJ
8bL
8aJ
4b
8ddL
8eeJ
!!linebreak:original
=
8ff#L
8ddJ
8bL
8aJ
4.b
8a
=
4.dd
8ee
4ff#
8eeL
8ddJ
=
8ff#L
8eeJ
8eeL
8ddJ
8eeL
8ggJ
8ff#L
8eeJ
=
4d
8dL
8f#J
8aL
8f#J
4d
=
8gL
8dJ
8gL
8bJ
8aL
8f#J
4d
=
8aL
8ddJ
8ddL
8bJ
8aL
8f#J
8dL
8f#J
!!linebreak:original
=
8eL
8dJ
8f#L
8eJ
4d
4ryy
=||
*-
